X: 1
T: Inganess
C: Hugh Inkster
O: Orkney, Scotland
%D:
R: reel
S: Fiddle Hell Online 2022-4-10 handout for Jennifer Wrigley's workshop
N: The reel and strathspey versions were on the same handout page.
Z: 2022 John Chambers <jc:trillian.mit.edu>
M: 2/4
L: 1/16
K: D
"^A"|:\
A>G | F2DF A2FA | d2Ad f3e | d2A2 B>AG>F | G2E2 E2 |
AG  | F2DF A2FA | d2Ad f3e | d2A2 B>AG>E | FD D :|
"^B"\
|: fg | a2fd A2df | e2cA d3F | G2B2 A>Dd>A | F2E2 E2 |
[1 fg | a2fd A2df | e2cA d3F | G2B2 A>Dd>A | F2D2 D2 :|
[2 AG | F2DF A2FA | d2Ad f3e | d2A2 B>AG>E | FD D :|
